X: 16555
T: Hamar Ower Da Taing
R: reel
M: 4/4
K: Amixolydian
|:cA (3AAA cdec|d2 fd gdfd|cA (3AAA cdec|defg e4:|
a2 af gfec|d2 fd gdfd|a2 af gfec|defg e4|
a2 af gfec|d2 fd gdfd|cA (3AAA cdec|defg e4||

